SF_Symbols/arrowtriangle.up.fill.svg

<?xml version="1.0" encoding="UTF-8"?>
<svg xmlns="http://www.w3.org/2000/svg" xmlns:xlink="http://www.w3.org/1999/xlink" width="24" height="24" viewBox="0 0 24 24" version="1.1">
<g id="surface1">
<path style=" stroke:none;fill-rule:nonzero;fill:rgb(100%,100%,100%);fill-opacity:1;" d="M 22.648438 21.9375 C 22.648438 21.667969 22.59375 21.417969 22.488281 21.1875 C 22.386719 20.945312 22.269531 20.6875 22.125 20.410156 L 13.78125 3.214844 C 13.496094 2.632812 13.214844 2.238281 12.9375 2.023438 C 12.660156 1.808594 12.34375 1.699219 11.988281 1.699219 C 11.636719 1.699219 11.320312 1.808594 11.035156 2.023438 C 10.757812 2.238281 10.480469 2.632812 10.207031 3.214844 L 1.847656 20.410156 C 1.714844 20.695312 1.59375 20.960938 1.488281 21.199219 C 1.386719 21.433594 1.339844 21.683594 1.339844 21.949219 C 1.339844 22.449219 1.511719 22.84375 1.863281 23.128906 C 2.210938 23.414062 2.675781 23.558594 3.253906 23.558594 L 20.71875 23.542969 C 21.308594 23.542969 21.777344 23.402344 22.125 23.117188 C 22.472656 22.832031 22.648438 22.4375 22.648438 21.9375 Z M 22.648438 21.9375 "/>
</g>
</svg>

<svg xmlns="http://www.w3.org/2000/svg" width="24" height="24"><path style="stroke:none;fill-rule:nonzero;fill:#fff;fill-opacity:1" d="M22.648 21.938c0-.27-.054-.52-.16-.75-.101-.243-.218-.5-.363-.778L13.781 3.215c-.285-.582-.566-.977-.844-1.192a1.495 1.495 0 0 0-.949-.324c-.351 0-.668.11-.953.324-.277.215-.555.61-.828 1.192L1.847 20.41c-.132.285-.253.55-.359.79a1.837 1.837 0 0 0-.148.75c0 .5.172.894.523 1.179.348.285.813.43 1.39.43l17.466-.016c.59 0 1.058-.14 1.406-.426.348-.285.523-.68.523-1.18Zm0 0"/></svg>
